X: 31970
T: Peata Geal Mo Mhathair
R: polka
M: 2/4
K: Amajor
cA AB|cd e2|fd ec|df e>d|
cA AB|cd e2|fd ec|df/d/ cB||
Ac/A/ GE|FD DF|EF G/F/E|Ac e2|
Ac/A/ GE|FD DF|EF G/F/E|A2 AB||

